X:1
T:Bredon Hill and Other Songs
T:With Rue my Heart is Laden
T:Bredon Hill and Other Songs
T:George Butterworth
T:5. With Rue my Heart is Laden
T:Alfred Edward Housman
T:Creative Commons copyright waiver (CC0 1.0 Universal)
T:Creative Commons copyright waiver (CC0 1.0 Universal)
C:George Butterworth
Z:Alfred Edward Housman
Z:Creative Commons copyright waiver (CC0 1.0 Universal)
%%score 1 { ( 2 5 ) | ( 3 4 ) }
L:1/8
Q:1/4=114
M:4/4
K:E
V:1 treble nm="Voice"
V:2 treble nm="Piano"
V:5 treble 
V:3 bass 
V:4 bass 
V:1
"^Moderato, molto teneramente." z8 | z4 z2!mp! F2 | c3 c (BA) B2 | c4 F z!p! F2 | (GA) B2 (GF) E2 | %5
w: |With|rue my heart * is|lad- en For|gold- * en friends * I|
 F4 z2!mp! F2 |!<(! c2- (3c c c (Bc) d2!<)! |!>(! (c3 B) (A!tenuto!.G) F2!>)! | G A B2 (AG) (FE) || %9
w: had, For|man- * y a rose- * lipt|maid- * en _ And|man- y a light- * foot *|
[M:3/2] F4- F z z2 z2"^più forte"!mf! E2 ||[M:4/4]!<(! e2 c2 B2 F2!<)! | G4 C z!mp! C2 | %12
w: lad. _ By|brooks too broad for|leap- ing The|
!<(! c2 A2 G2 D2!<)! |!>(! E6!>)!!p! D2 | F2!<(! E2 A2!<)! G2 |!>(! c8!>)! | %16
w: light- foot boys are|laid; The|rose- lipt girls are|sleep-|
 F4[Q:1/4=110] z2!pp! F2 |[Q:1/4=100] (G!<(!A) B2!<)![Q:1/4=60]!>(!{AB} (A[Q:1/4=90]G) (FE)!>)! || %18
w: ing In|fields * where ro- * ses *|
[M:3/2] F8-[Q:1/4=112] F2 z2 ||[M:4/4] z8 | z8 |[Q:1/4=108] z8[Q:1/4=90] | !fermata!z8 |] %23
w: fade. _|||||
V:2
!mp! (A4 F4 | A4!>(! c3!>)! B) |!p! (A4 F4 | A4 c3 B) | (G4 E4 |!<(! F2 A2!<)!!>(! c3 B)!>)! | %6
 (A4 F4 | A4 c3 B) | (G4 E4 ||[M:3/2] [=DF]4-"_poco cresc." [DF][EG] [FA]2 [EG][DF][CE][B,D]) || %10
[M:4/4]!mf! !arpeggio![A,C]4 !arpeggio![B,=D]4 | !arpeggio![G,B,]4 !arpeggio![A,C]4 | %12
 !arpeggio![F,A,]4 !arpeggio![G,B,]4 | !arpeggio!=G,4!>(! !arpeggio!A,4!>)! | %14
!p! z4!<(! (A2 G2)!<)! |!>(! ([C-G]8!>)! | [CF]4) z4 |"_colla voce" z2!pp! [B,G]4 z2 || %18
[M:3/2] z4!pp! (DE!<(! F2- FG A2-)!<)! ||[M:4/4]"^espress."!>(! z4 (c4-!>)! | c4 A4 | %21
"^poco rit."!<(! c4!<)!!>(! e3!>)! d | !fermata!c8) |] %23
V:3
 (C4 A,4 | C4 E3 !courtesy!^D) | ([F,C]4 [B,=D]4 | [F,C]4 E2 D2) | ([E,B,]4 [C,G,]4 | %5
 A,2 C2 E3 D) | ([F,C]4 [B,D]4 | [F,C]4 E2 D2) | ([E,B,]4 [A,C]4 || %9
[M:3/2] [=D,A,]4) ([=D,,A,,]6 [E,,E,]2) ||[M:4/4] [A,,E,]4 [B,,F,]4 | [G,,^D,]4 [A,,E,]4 | %12
 [F,,C,]4 [G,,D,]4 | [E,,B,,]4 [F,,C,]4 | (F,2 E,2) (F,2 G,2) | ([A,,-E,]8 | [A,,F,]4) z4 | %17
 z2 E,4 z2 ||[M:3/2] z4 (F,G, A,2- A,B, C2-) ||[M:4/4] (C2 B,2 A,2 G,2 | A,4) C4 | A,6 B,2 | %22
 !fermata!C8 |] %23
V:4
 F,8- | F,8- | x8 | x4 B,4 | x8 | F,8 | x8 | x4 B,4 | x8 ||[M:3/2] x12 ||[M:4/4] x8 | x8 | x8 | %13
 (E,6 D,2) | [C,,^G,,]4 B,,4 | x8 | x8 | x8 ||[M:3/2] x4 B,,4- B,, z z2 ||[M:4/4] z4 (C,4 | F,8- | %21
 F,8 | F,8) |] %23
V:5
 x8 | x8 | x8 | x8 | x8 | x8 | x8 | x8 | x8 ||[M:3/2] x12 ||[M:4/4] x8 | x8 | x8 | x8 | x4 D4 | %15
 x8 | x8 | x8 ||[M:3/2] x12 ||[M:4/4] (A2 G2 F2 E2 | F8-) | F6 G2 | A8 |] %23

